svgs/solid/hockey-stick-puck.svg

<svg xmlns="http://www.w3.org/2000/svg" viewBox="0 0 640 512"><!--! Font Awesome Pro 6.6.0 by @fontawesome - https://fontawesome.com License - https://fontawesome.com/license (Commercial License) Copyright 2024 Fonticons, Inc. --><path d="M462.3 3.4c15.8 7.9 22.2 27.1 14.3 42.9L261.5 476.6c-10.8 21.7-33 35.4-57.2 35.4L160 512l-32 0-32 0 0-32 0-128 156.2 0L419.4 17.7c7.9-15.8 27.1-22.2 42.9-14.3zM0 384c0-17.7 14.3-32 32-32l32 0 0 160-32 0c-17.7 0-32-14.3-32-32l0-96zm416 32l192 0c17.7 0 32 14.3 32 32l0 32c0 17.7-14.3 32-32 32l-192 0c-17.7 0-32-14.3-32-32l0-32c0-17.7 14.3-32 32-32z"/></svg>

<svg xmlns="http://www.w3.org/2000/svg" viewBox="0 0 640 512"><!--! Font Awesome Pro 6.4.0 by @fontawesome - https://fontawesome.com License - https://fontawesome.com/license (Commercial License) Copyright 2023 Fonticons, Inc. --><path d="M462.3 3.4c15.8 7.9 22.2 27.1 14.3 42.9L261.5 476.6c-10.8 21.7-33 35.4-57.2 35.4H160 128 96V480 352H252.2L419.4 17.7c7.9-15.8 27.1-22.2 42.9-14.3zM0 384c0-17.7 14.3-32 32-32H64V512H32c-17.7 0-32-14.3-32-32V384zm416 32H608c17.7 0 32 14.3 32 32v32c0 17.7-14.3 32-32 32H416c-17.7 0-32-14.3-32-32V448c0-17.7 14.3-32 32-32z"/></svg>
